client/src/components/style/Media/formSuccess.svg

<?xml version="1.0" encoding="UTF-8"?>
<svg version="1.1" viewBox="0 0 20 20" xmlns="http://www.w3.org/2000/svg" xmlnsCc="http://creativecommons.org/ns#" xmlnsDc="http://purl.org/dc/elements/1.1/" xmlnsRdf="http://www.w3.org/1999/02/22-rdf-syntax-ns#">

<path d="m-2-2h24v24h-24zm0 0h24v24h-24z" fill="none"/>
<path d="m14.59 5.58-6.59 6.59-3.59-3.58-1.41 1.41 5 5 8-8zm-4.59-5.58c-5.52 0-10 4.48-10 10s4.48 10 10 10 10-4.48 10-10-4.48-10-10-10zm0 18c-4.42 0-8-3.58-8-8s3.58-8 8-8 8 3.58 8 8-3.58 8-8 8z" fill="#99c192"/>
</svg>

<?xml version="1.0" encoding="UTF-8" standalone="no"?>
<svg
   xmlns:dc="http://purl.org/dc/elements/1.1/"
   xmlns:cc="http://creativecommons.org/ns#"
   xmlns:rdf="http://www.w3.org/1999/02/22-rdf-syntax-ns#"
   xmlns:svg="http://www.w3.org/2000/svg"
   xmlns="http://www.w3.org/2000/svg"
   xmlns:sodipodi="http://sodipodi.sourceforge.net/DTD/sodipodi-0.dtd"
   xmlns:inkscape="http://www.inkscape.org/namespaces/inkscape"
   width="20"
   height="20"
   viewBox="0 0 20 20"
   version="1.1"
   id="svg1362"
   sodipodi:docname="formSuccess.svg"
   inkscape:version="0.92.4 (5da689c313, 2019-01-14)">
  <metadata
     id="metadata1368">
    <rdf:RDF>
      <cc:Work
         rdf:about="">
        <dc:format>image/svg+xml</dc:format>
        <dc:type
           rdf:resource="http://purl.org/dc/dcmitype/StillImage" />
      </cc:Work>
    </rdf:RDF>
  </metadata>
  <defs
     id="defs1366" />
  <sodipodi:namedview
     pagecolor="#ffffff"
     bordercolor="#666666"
     borderopacity="1"
     objecttolerance="10"
     gridtolerance="10"
     guidetolerance="10"
     inkscape:pageopacity="0"
     inkscape:pageshadow="2"
     inkscape:window-width="1920"
     inkscape:window-height="1017"
     id="namedview1364"
     showgrid="false"
     inkscape:zoom="9.8333333"
     inkscape:cx="10"
     inkscape:cy="10"
     inkscape:window-x="-8"
     inkscape:window-y="-8"
     inkscape:window-maximized="1"
     inkscape:current-layer="svg1362" />
  <path
     d="M -2,-2 H 22 V 22 H -2 Z m 0,0 H 22 V 22 H -2 Z"
     id="path1358"
     inkscape:connector-curvature="0"
     style="fill:none" />
  <path
     d="M 14.59,5.58 8,12.17 4.41,8.59 3,10 8,15 16,7 Z M 10,0 C 4.48,0 0,4.48 0,10 0,15.52 4.48,20 10,20 15.52,20 20,15.52 20,10 20,4.48 15.52,0 10,0 Z m 0,18 C 5.58,18 2,14.42 2,10 2,5.58 5.58,2 10,2 c 4.42,0 8,3.58 8,8 0,4.42 -3.58,8 -8,8 z"
     id="path1360"
     inkscape:connector-curvature="0"
     style="stroke:none;stroke-opacity:1;fill:#99c192;fill-opacity:1" />
</svg>
